X:74
T: Graf Friedrich
N: Q0048
O: Suedosteuropa, Rumaenien, Siebenbuergen, Schoenbirk
N: Anhaengsel in der letzten Zeile.
R: Ballade, Hochzeit, Mord / Unfall, Tod
M: 3/4
L: 1/8
K: D
D | DDAGA2 | G=FE2z
D | =FED2A2 | G=FF2
FE | D2A2D=F | =FED
DDE | =F2D2FE | D2zA(3G=FE | D2z3

@@@ Tune index: 810
